svgs/thin/messages-question.svg

<svg xmlns="http://www.w3.org/2000/svg" viewBox="0 0 640 512"><!-- Font Awesome Pro 6.0.0-alpha2 by @fontawesome - https://fontawesome.com License - https://fontawesome.com/license (Commercial License) --><path d="M208 233.188C201.701 233.188 196.594 238.293 196.594 244.594C196.594 250.893 201.701 256 208 256S219.406 250.893 219.406 244.594C219.406 238.293 214.299 233.188 208 233.188ZM228.734 72H183.297C159.422 72 140 91.375 140 115.203C140 119.625 143.578 123.203 148 123.203S156 119.625 156 115.203C156 100.203 168.25 88 183.297 88H228.734C245.969 88 260 101.984 260 119.156C260 131.031 253.375 141.703 242.625 147.062L204.328 166.891C201.672 168.266 200 171.016 200 174V200C200 204.422 203.578 208 208 208S216 204.422 216 200V178.859L249.859 161.328C265.984 153.297 276 137.141 276 119.156C276 93.156 254.797 72 228.734 72ZM576.006 128H472C467.582 128 464 131.582 464 136S467.582 144 472 144H576C602.51 144 624 165.49 624 192V383.969C624 410.477 602.512 431.965 576.006 431.965H528V489.701L455.355 435.17L451.088 431.965H320C293.49 431.965 272 410.475 272 383.963V375.992C272 371.574 268.418 367.992 264 367.992S256 371.574 256 375.992V383.969C256 419.166 284.797 447.965 319.994 447.965H445.75L528.5 510.084C530.273 511.404 532.258 512 534.201 512C539.244 512 544 507.984 544 502.211V447.965H576C611.199 447.965 640 419.164 640 383.963V191.994C640 156.797 611.203 128 576.006 128ZM352.229 319.875C387.377 319.875 416 291.174 416 256.004V63.994C416 28.748 387.25 0 352 0H64C28.75 0 0 28.748 0 63.994V256.004C0 291.25 28.75 320 64 320L96 320.018V374.264C96 380.037 100.756 384.057 105.801 384.057C107.742 384.057 109.727 383.459 111.5 382.139L194.25 320.018L352 319.875H352.229ZM194.236 304.018L188.906 304.021L184.645 307.223L112 361.756V304.025L96.008 304.018L64 304C37.533 304 16 282.469 16 256.004V63.994C16 37.529 37.533 16 64 16H352C378.467 16 400 37.529 400 63.994V256.004C400 282.4 378.57 303.875 351.986 303.875L194.236 304.018Z"/></svg>

<svg xmlns="http://www.w3.org/2000/svg" viewBox="0 0 640 512"><!--! Font Awesome Pro 6.0.0-alpha3 by @fontawesome - https://fontawesome.com License - https://fontawesome.com/license (Commercial License) --><path d="M208 233.2c-6.299 0-11.41 5.105-11.41 11.41C196.6 250.9 201.7 256 208 256s11.41-5.107 11.41-11.41C219.4 238.3 214.3 233.2 208 233.2zM228.7 72H183.3C159.4 72 140 91.38 140 115.2c0 4.422 3.578 8 8 8s8-3.578 8-8C156 100.2 168.3 88 183.3 88h45.44C245.1 88 260 101.1 260 119.2c0 11.88-6.625 22.55-17.38 27.91L204.3 166.9C201.7 168.3 200 171 200 174V200c0 4.422 3.578 8 8 8s8-3.578 8-8V178.9l33.86-17.53C265.1 153.3 276 137.1 276 119.2C276 93.16 254.8 72 228.7 72zM576 128H472c-4.418 0-8 3.582-8 8s3.582 8 8 8H576c26.51 0 48 21.49 48 48v191.1c0 26.51-21.49 47.1-47.99 47.1H528v57.74l-76.91-57.74H320c-26.51 0-48-21.49-48-48v-7.971c0-4.418-3.582-8-8-8s-8 3.582-8 8v7.983c0 35.2 28.8 63.1 63.1 63.1l125.8-.0073l82.75 62.12C530.3 511.4 532.3 512 534.2 512C539.2 512 544 507.1 544 502.2v-54.24h32c35.2 0 64-28.8 64-63.1V191.1C640 156.8 611.2 128 576 128zM352 319.9c35.15 0 64-28.75 64-63.92V63.1C416 28.75 387.3 0 352 0H64C28.75 0 0 28.75 0 63.1v192C0 291.2 28.75 320 64 320l32 .0106v54.25C96 380 100.8 384.1 105.8 384.1c1.941 0 3.926-.5977 5.699-1.918l82.75-62.12L352 319.9zM194.2 304L188.9 304L112 361.8V304L64 304c-26.47 0-48-21.53-48-47.1V63.99C16 37.53 37.53 16 64 16h288c26.47 0 48 21.53 48 47.99v192c0 26.4-21.43 47.87-48.01 47.87L194.2 304z"/></svg>
